icon/svg/modfest/transparent.svg

<?xml version="1.0" encoding="UTF-8"?>
<svg id="Layer_1" data-name="Layer 1" xmlns="http://www.w3.org/2000/svg" viewBox="0 0 180 180">
  <path d="M158.61,101.45l-57.17,57.17c-6.32,6.31-16.56,6.31-22.88,0L21.39,101.45c-6.32-6.32-6.32-16.57,0-22.89L78.56,21.39c6.32-6.32,16.56-6.32,22.88,0l57.17,57.17c6.32,6.32,6.32,16.57,0,22.89Z" style="fill: #171d23;"/>
  <path d="M121.17,67.21c-.08-.64-.33-1.35-.76-2.14-.73-1.42-2.78-2.14-6.13-2.14s-5.48,.72-6.38,2.14c-3.01,3.8-9,11.64-17.97,23.52l-17.98-23.6-.48-.47c-.31-.37-.99-.73-2.02-1.07-1.02-.35-2.25-.52-3.68-.52-3.32,0-5.38,.69-6.17,2.06-.43,.79-.68,1.49-.76,2.1-.08,.61-.12,1.52-.12,2.73v43.95c0,1.27,.04,2.22,.12,2.85,.08,.64,.33,1.32,.76,2.06,.79,1.43,2.79,2.14,6.01,2.14s5.39-.71,6.18-2.14c.42-.74,.67-1.41,.75-2.02,.08-.6,.12-1.51,.12-2.73v-26.69c.27,.32,1.95,2.63,5.07,6.93,3.11,4.31,5.2,7.12,6.26,8.44l.63,.87c.42,.53,1.12,1.07,2.1,1.62,.97,.56,2.06,.83,3.25,.83s2.29-.3,3.32-.91c1.03-.6,1.68-1.08,1.94-1.42,.27-.35,.74-.97,1.43-1.86,.68-.9,2.29-3.13,4.83-6.7,2.53-3.56,4.46-6.16,5.78-7.8v26.53c0,1.85,.13,3.22,.39,4.12,.27,.69,.64,1.22,1.11,1.59,.48,.37,1.16,.68,2.06,.95,.9,.26,2.11,.39,3.65,.39s2.79-.16,3.8-.47c2-.64,3.01-2.78,3.01-6.42v-43.95c0-1.21-.04-2.14-.12-2.77Z" style="fill: #fff;"/>
  <path d="M158.61,101.45l-57.17,57.17c-6.32,6.31-16.56,6.31-22.88,0L21.39,101.45c-6.32-6.32-6.32-16.57,0-22.89L78.56,21.39c6.32-6.32,16.56-6.32,22.88,0l57.17,57.17c6.32,6.32,6.32,16.57,0,22.89Z" style="fill: none; stroke: #fff; stroke-miterlimit: 10; stroke-width: 13.77px;"/>
</svg>

<?xml version="1.0" encoding="UTF-8" standalone="no"?>
<!DOCTYPE svg PUBLIC "-//W3C//DTD SVG 1.1//EN" "http://www.w3.org/Graphics/SVG/1.1/DTD/svg11.dtd">
<svg width="100%" height="100%" viewBox="0 0 180 180" version="1.1" xmlns="http://www.w3.org/2000/svg" xmlns:xlink="http://www.w3.org/1999/xlink" xml:space="preserve" xmlns:serif="http://www.serif.com/" style="fill-rule:evenodd;clip-rule:evenodd;stroke-miterlimit:10;">
    <g transform="matrix(1,0,0,1,-220,-220)">
        <g transform="matrix(1,0,0,1,3,0)">
            <g id="modfest-transparent" serif:id="modfest/transparent" transform="matrix(0.9,0,0,0.9,217,220)">
                <rect x="0" y="0" width="200" height="200" style="fill:none;"/>
                <clipPath id="_clip1">
                    <rect x="0" y="0" width="200" height="200"/>
                </clipPath>
                <g clip-path="url(#_clip1)">
                    <g transform="matrix(1.11111,0,0,1.11111,-3.55271e-15,-0.00138889)">
                        <path d="M158.61,101.45L101.44,158.62C95.12,164.93 84.88,164.93 78.56,158.62L21.39,101.45C15.07,95.13 15.07,84.88 21.39,78.56L78.56,21.39C84.88,15.07 95.12,15.07 101.44,21.39L158.61,78.56C164.93,84.88 164.93,95.13 158.61,101.45Z" style="fill:rgb(23,29,35);fill-rule:nonzero;"/>
                    </g>
                    <g transform="matrix(1.11111,0,0,1.11111,-11.1085,-11.1111)">
                        <g transform="matrix(1,0,0,1,9.99765,9.99875)">
                            <path d="M121.17,67.21C121.09,66.57 120.84,65.86 120.41,65.07C119.68,63.65 117.63,62.93 114.28,62.93C110.93,62.93 108.8,63.65 107.9,65.07C104.89,68.87 98.9,76.71 89.93,88.59L71.95,64.99L71.47,64.52C71.16,64.15 70.48,63.79 69.45,63.45C68.43,63.1 67.2,62.93 65.77,62.93C62.45,62.93 60.39,63.62 59.6,64.99C59.17,65.78 58.92,66.48 58.84,67.09C58.76,67.7 58.72,68.61 58.72,69.82L58.72,113.77C58.72,115.04 58.76,115.99 58.84,116.62C58.92,117.26 59.17,117.94 59.6,118.68C60.39,120.11 62.39,120.82 65.61,120.82C68.83,120.82 71,120.11 71.79,118.68C72.21,117.94 72.46,117.27 72.54,116.66C72.62,116.06 72.66,115.15 72.66,113.93L72.66,87.24C72.93,87.56 74.61,89.87 77.73,94.17C80.84,98.48 82.93,101.29 83.99,102.61L84.62,103.48C85.04,104.01 85.74,104.55 86.72,105.1C87.69,105.66 88.78,105.93 89.97,105.93C91.16,105.93 92.26,105.63 93.29,105.02C94.32,104.42 94.97,103.94 95.23,103.6C95.5,103.25 95.97,102.63 96.66,101.74C97.34,100.84 98.95,98.61 101.49,95.04C104.02,91.48 105.95,88.88 107.27,87.24L107.27,113.77C107.27,115.62 107.4,116.99 107.66,117.89C107.93,118.58 108.3,119.11 108.77,119.48C109.25,119.85 109.93,120.16 110.83,120.43C111.73,120.69 112.94,120.82 114.48,120.82C116.02,120.82 117.27,120.66 118.28,120.35C120.28,119.71 121.29,117.57 121.29,113.93L121.29,69.98C121.29,68.77 121.25,67.84 121.17,67.21Z" style="fill:white;fill-rule:nonzero;"/>
                        </g>
                        <g transform="matrix(1,0,0,1,9.99765,9.99875)">
                            <path d="M158.61,101.45L101.44,158.62C95.12,164.93 84.88,164.93 78.56,158.62L21.39,101.45C15.07,95.13 15.07,84.88 21.39,78.56L78.56,21.39C84.88,15.07 95.12,15.07 101.44,21.39L158.61,78.56C164.93,84.88 164.93,95.13 158.61,101.45Z" style="fill:none;fill-rule:nonzero;stroke:white;stroke-width:13.77px;"/>
                        </g>
                    </g>
                </g>
            </g>
        </g>
    </g>
</svg>
